X: 1
T: Silk Night Gown
O: Trad
D: Viva El Klezmer
M: C
L: 1/8
K: C
Gce \
| "C"ggfe ggfe \
| "C"ag3 zGce \
| "G7"gffe edde \
| "C"dc3 zGce \
| "G7"gffe "E7"edde \
| "Am"dc3 "E7"e4 \
| "Am"a3e ae2A |
| "Dm"fede "Am"dc2c \
| "Dm"cddc cBBA \
| "E7"^de3 z2e2 \
| "Am"a3e ae2A \
| "Dm"fede "Am"dc2c \
| "Dm"cddc "E7"cBBA \
| "Am"A4 a |]
